modules/feathericon/icons/login.svg

<?xml version="1.0" encoding="UTF-8"?>
<svg width="24px" height="24px" viewBox="0 0 24 24" version="1.1" xmlns="http://www.w3.org/2000/svg" xmlns:xlink="http://www.w3.org/1999/xlink">
    <!-- Generator: sketchtool 52.2 (67145) - http://www.bohemiancoding.com/sketch -->
    <title>login</title>
    <desc>Created with sketchtool.</desc>
    <g id="web-app" stroke="none" stroke-width="1" fill="none" fill-rule="evenodd">
        <g id="login" fill="#000000">
            <path d="M9.58578644,11 L7.05025253,8.46446609 L8.46446609,7.05025253 L13.4142136,12 L8.46446609,16.9497475 L7.05025253,15.5355339 L9.58578644,13 L3,13 L3,11 L9.58578644,11 Z M11,3 C16.3333333,3 19,3 19,3 C20.1000004,3 21,3.9000001 21,5 C21,5 21,19 21,19 C21,20.1000004 20.1000004,21 19,21 C19,21 16.3333333,21 11,21 L11,19 L19,19 L19,5 L11,5 L11,3 Z" id="Shape"></path>
        </g>
    </g>
</svg>

<svg width="24" height="24" viewBox="0 0 24 24" xmlns="http://www.w3.org/2000/svg"><path d="M9.586 11L7.05 8.464 8.464 7.05l4.95 4.95-4.95 4.95-1.414-1.414L9.586 13H3v-2h6.586zM11 3h8c1.1 0 2 .9 2 2v14c0 1.1-.9 2-2 2h-8v-2h8V5h-8V3z" fill="#000" fill-rule="evenodd"/></svg>
